Newaita-dark/actions/24/edit-cut.svg

<svg height="24" viewBox="0 0 24 24" width="24" xmlns="http://www.w3.org/2000/svg"><path d="m7.441406 2.667969s-2.976562 2.480469 0 5.953125l2.714844 3.296875c-.933594 1.417969-1.6875 2.570312-2.171875 3.3125-.328125-.105469-.675781-.160157-1.039063-.160157-1.921874 0-3.472656 1.550782-3.472656 3.472657 0 1.925781 1.550782 3.476562 3.472656 3.476562 1.925782 0 3.472657-1.550781 3.472657-3.476562 0-.726563-.222657-1.402344-.601563-1.960938l2.089844-2.539062 2.09375 2.539062c-.382812.558594-.605469 1.234375-.605469 1.960938 0 1.925781 1.550781 3.476562 3.472657 3.476562 1.925781 0 3.472656-1.550781 3.472656-3.476562 0-1.921875-1.546875-3.472657-3.472656-3.472657-.359376 0-.710938.054688-1.039063.160157-.484375-.742188-1.238281-1.894531-2.167969-3.3125l2.710938-3.296875c2.976562-3.472656 0-5.953125 0-5.953125-1.042969 1.460937-2.789063 4.066406-4.464844 6.59375-1.671875-2.527344-3.417969-5.132813-4.464844-6.59375zm4.464844 8.683593c.414062 0 .746094.332032.746094.742188 0 .414062-.332032.746094-.746094.746094-.410156 0-.742188-.332032-.742188-.746094 0-.410156.332032-.742188.742188-.742188zm-4.960938 5.703126c.824219 0 1.488282.664062 1.488282 1.488281 0 .828125-.664063 1.488281-1.488282 1.488281-.824218 0-1.488281-.660156-1.488281-1.488281 0-.824219.664063-1.488281 1.488281-1.488281zm9.921876 0c.828124 0 1.488281.664062 1.488281 1.488281 0 .828125-.660157 1.488281-1.488281 1.488281-.824219 0-1.488282-.660156-1.488282-1.488281 0-.824219.664063-1.488281 1.488282-1.488281zm0 0" fill="#e0e0e0"/></svg>

<?xml version="1.0" encoding="UTF-8"?>
<svg xmlns="http://www.w3.org/2000/svg" xmlns:xlink="http://www.w3.org/1999/xlink" width="24px" height="24px" viewBox="0 0 24 24" version="1.1">
<g id="surface1">
<path style=" stroke:none;fill-rule:nonzero;fill:rgb(87.843138%,87.843138%,87.843138%);fill-opacity:1;" d="M 7.441406 2.667969 C 7.441406 2.667969 4.464844 5.148438 7.441406 8.621094 L 10.15625 11.917969 C 9.222656 13.335938 8.46875 14.488281 7.984375 15.230469 C 7.65625 15.125 7.308594 15.070312 6.945312 15.070312 C 5.023438 15.070312 3.472656 16.621094 3.472656 18.542969 C 3.472656 20.46875 5.023438 22.019531 6.945312 22.019531 C 8.871094 22.019531 10.417969 20.46875 10.417969 18.542969 C 10.417969 17.816406 10.195312 17.140625 9.816406 16.582031 L 11.90625 14.042969 L 14 16.582031 C 13.617188 17.140625 13.394531 17.816406 13.394531 18.542969 C 13.394531 20.46875 14.945312 22.019531 16.867188 22.019531 C 18.792969 22.019531 20.339844 20.46875 20.339844 18.542969 C 20.339844 16.621094 18.792969 15.070312 16.867188 15.070312 C 16.507812 15.070312 16.15625 15.125 15.828125 15.230469 C 15.34375 14.488281 14.589844 13.335938 13.660156 11.917969 L 16.371094 8.621094 C 19.347656 5.148438 16.371094 2.667969 16.371094 2.667969 C 15.328125 4.128906 13.582031 6.734375 11.90625 9.261719 C 10.234375 6.734375 8.488281 4.128906 7.441406 2.667969 Z M 11.90625 11.351562 C 12.320312 11.351562 12.652344 11.683594 12.652344 12.09375 C 12.652344 12.507812 12.320312 12.839844 11.90625 12.839844 C 11.496094 12.839844 11.164062 12.507812 11.164062 12.09375 C 11.164062 11.683594 11.496094 11.351562 11.90625 11.351562 Z M 6.945312 17.054688 C 7.769531 17.054688 8.433594 17.71875 8.433594 18.542969 C 8.433594 19.371094 7.769531 20.03125 6.945312 20.03125 C 6.121094 20.03125 5.457031 19.371094 5.457031 18.542969 C 5.457031 17.71875 6.121094 17.054688 6.945312 17.054688 Z M 16.867188 17.054688 C 17.695312 17.054688 18.355469 17.71875 18.355469 18.542969 C 18.355469 19.371094 17.695312 20.03125 16.867188 20.03125 C 16.042969 20.03125 15.378906 19.371094 15.378906 18.542969 C 15.378906 17.71875 16.042969 17.054688 16.867188 17.054688 Z M 16.867188 17.054688 "/>
</g>
</svg>
